lib/preview/nrk-logo-preview-nrk-p1-with-bg.svg

<svg width="65" height="24" viewBox="0 0 65 24" fill="none" xmlns="http://www.w3.org/2000/svg">
<rect y="-3.05176e-05" width="65" height="24" fill="#114F9D"/>
<path d="M6.00427 18V6.00106H9.94146V18H6.00427ZM15.2981 7.91075L17.5623 18H13.2534L10.5498 6.00106H12.9664C13.5206 5.99387 14.0583 6.18922 14.4788 6.55036C14.8999 6.89635 15.1892 7.37667 15.2981 7.91075ZM18.1538 18V6.00106H22.091V18H18.1538ZM25.0647 10.5641C24.6405 10.5682 24.223 10.4572 23.8568 10.2429C23.4955 10.0341 23.1954 9.73393 22.9865 9.37257C22.7721 9.0063 22.661 8.58873 22.6652 8.16429C22.6604 7.74243 22.7715 7.32735 22.9865 6.9644C23.1976 6.60696 23.4974 6.31006 23.8568 6.10249C24.2231 5.88847 24.6405 5.77748 25.0647 5.78135C25.4865 5.77681 25.9014 5.8879 26.2645 6.10249C26.6203 6.31188 26.9169 6.60853 27.1263 6.9644C27.3411 7.32745 27.4522 7.74246 27.4476 8.16429C27.4515 8.5887 27.3405 9.0062 27.1263 9.37257C26.9191 9.73234 26.6222 10.0322 26.2645 10.2429C25.9014 10.4579 25.4862 10.5691 25.0642 10.5641H25.0647ZM28.0559 18V6.00106H31.9934V18H28.0559ZM36.978 12.5582C36.9891 12.5698 37.0735 12.7079 37.2314 12.9722C37.3893 13.2366 37.5949 13.5747 37.8482 13.9863C38.1017 14.3977 38.3692 14.8342 38.6506 15.296C38.932 15.7577 39.1969 16.1943 39.4451 16.6057C39.6924 17.0172 39.974 17.4819 40.29 18H35.9641C35.6936 17.5606 35.4484 17.1634 35.2287 16.8085C35.0091 16.4536 34.7756 16.0706 34.5281 15.6593C34.2801 15.2485 34.0349 14.8485 33.7925 14.4594C33.5501 14.0704 33.3418 13.7296 33.1675 13.437C32.9925 13.1443 32.8713 12.9471 32.8039 12.8455C32.6368 12.5934 32.5379 12.3023 32.517 12.0005C32.5337 11.7109 32.6269 11.4309 32.787 11.1891C32.8546 11.0764 32.9786 10.8764 33.1588 10.5891C33.339 10.3018 33.5503 9.96102 33.7925 9.56669C34.0347 9.17236 34.2799 8.76957 34.5281 8.35834C34.7763 7.94711 35.0098 7.56121 35.2287 7.20068C35.4488 6.84052 35.6939 6.44056 35.9641 6.00078H40.29L36.9439 11.4595C36.8404 11.6215 36.782 11.8083 36.7749 12.0005C36.786 12.2023 36.8565 12.3963 36.9774 12.5582H36.978Z" fill="white"/>
<path d="M53.0067 7.55615C52.799 7.23559 52.5323 6.95736 52.2209 6.73627C51.8737 6.49325 51.4882 6.31043 51.0803 6.19549C50.5851 6.05881 50.0729 5.99348 49.5593 6.00144H44.8615V17.9997H46.6358V13.6904H49.6945C50.3849 13.7009 51.0661 13.532 51.6717 13.2004C52.2518 12.8787 52.7337 12.4055 53.0658 11.8313C53.4218 11.1975 53.5999 10.4793 53.5813 9.75271C53.5828 9.36004 53.5374 8.96859 53.4461 8.58668C53.3583 8.221 53.2098 7.87266 53.0067 7.55615ZM51.4351 11.1978C51.2081 11.5542 50.8737 11.8294 50.4803 11.9837C50.003 12.1643 49.495 12.2504 48.9848 12.2371H46.6358V7.47164H49.2214C49.7152 7.45299 50.2067 7.5483 50.6578 7.75019C51.0166 7.92356 51.31 8.20802 51.4943 8.56134C51.6896 8.95764 51.7853 9.39559 51.7731 9.83722C51.7926 10.3137 51.6754 10.7858 51.4351 11.1978Z" fill="#B2CFF5"/>
<path d="M57.9581 6.00145C57.6875 6.13664 57.4312 6.26902 57.1889 6.39858C56.9467 6.52814 56.7102 6.64922 56.4795 6.76188C56.2481 6.87454 56.0143 6.98722 55.7779 7.09988C55.5415 7.21254 55.2992 7.31392 55.0512 7.40405C54.8034 7.49455 54.5387 7.58458 54.2573 7.67414L54.6287 9.11054C54.9667 9.00915 55.2737 8.90777 55.5497 8.80638C55.8201 8.70749 56.0853 8.5947 56.344 8.46841C56.5977 8.34449 56.8511 8.20928 57.1044 8.06282L57.1132 8.05777V17.9999H58.8704V6.00172L57.9581 6.00145Z" fill="#B2CFF5"/>
</svg>

<svg xmlns="http://www.w3.org/2000/svg" viewBox="0 0 65 24"><path fill="#114F9D" d="M0 0h65v24H0z"/><path fill="#fff" d="M6.004 18V6.001h3.937V18H6.004Zm9.294-10.09L17.562 18h-4.309L10.55 6.001h2.416a2.276 2.276 0 0 1 1.513.55c.42.345.71.826.82 1.36ZM18.154 18V6.001h3.937V18h-3.937Zm6.91-7.436a2.382 2.382 0 0 1-2.4-2.4 2.303 2.303 0 0 1 .323-1.2 2.411 2.411 0 0 1 3.278-.862c.355.21.652.507.861.862.215.363.326.778.322 1.2a2.4 2.4 0 0 1-1.183 2.079 2.302 2.302 0 0 1-1.2.321ZM28.057 18V6.001h3.937V18h-3.937Zm8.922-5.442c.011.012.096.15.253.414.158.265.364.603.617 1.014a309.436 309.436 0 0 1 1.597 2.62c.247.411.529.876.845 1.394h-4.326c-.27-.44-.516-.837-.735-1.192-.22-.354-.453-.737-.7-1.149-.249-.41-.494-.81-.737-1.2-.242-.389-.45-.73-.625-1.022a18.04 18.04 0 0 0-.363-.591 1.748 1.748 0 0 1-.287-.845c.017-.29.11-.57.27-.812.068-.113.192-.313.372-.6s.391-.628.633-1.022c.243-.395.488-.797.736-1.209l.7-1.157.736-1.2h4.326l-3.346 5.458a1.079 1.079 0 0 0-.17.542c.012.201.082.395.203.557h.001Z"/><path fill="#B2CFF5" d="M53.007 7.556a3.019 3.019 0 0 0-.786-.82 3.774 3.774 0 0 0-1.14-.54A5.402 5.402 0 0 0 49.558 6h-4.697V18h1.774v-4.31h3.058a3.99 3.99 0 0 0 1.978-.49 3.662 3.662 0 0 0 1.394-1.369 4.034 4.034 0 0 0 .515-2.078 4.934 4.934 0 0 0-.135-1.166 3.361 3.361 0 0 0-.44-1.03Zm-1.572 3.642a1.996 1.996 0 0 1-.955.786c-.477.18-.985.266-1.495.253h-2.35V7.472h2.586c.494-.019.986.076 1.437.278.359.174.652.458.836.811.196.397.291.835.28 1.276.019.477-.099.949-.339 1.36ZM57.958 6.001c-.27.136-.527.268-.77.398-.241.13-.478.25-.709.363-.23.113-.465.225-.701.338a8.194 8.194 0 0 1-.727.304c-.248.09-.512.18-.794.27l.372 1.437c.338-.102.645-.203.92-.305.271-.099.536-.211.795-.338.254-.124.507-.259.76-.405l.01-.005V18h1.756V6.002h-.912Z"/></svg>
